src/components/icon/img/complete.svg

<svg viewBox="0 0 50 50" xmlns="http://www.w3.org/2000/svg"><path d="m43.67 33.65h3.33v13.35a3.16 3.16 0 0 1 -1 2.4 3.32 3.32 0 0 1 -2.35.94h-40a3.22 3.22 0 0 1 -3.3-3.34v-40a3.28 3.28 0 0 1 .94-2.35 3.14 3.14 0 0 1 2.39-1h13.32v3.35h-13.32v40h40zm6.25-30.71a1.26 1.26 0 0 1 .21 1.66l-19.27 28.33a1.26 1.26 0 0 1 -1 .72 1.39 1.39 0 0 1 -1.25-.41l-13-14.48a1.17 1.17 0 0 1 0-1.87l2.19-2.19a1.21 1.21 0 0 1 2 0l8.25 8.3a1.33 1.33 0 0 0 1.2.42 1.27 1.27 0 0 0 1-.83l15.2-21.53a1.26 1.26 0 0 1 1-.73 1.33 1.33 0 0 1 1.2.42z" fill="#1873b4"/></svg>

<svg id="Ebene_1" data-name="Ebene 1" xmlns="http://www.w3.org/2000/svg" viewBox="0 0 50 50"><defs><style>.cls-1{fill:#1873b4;}</style></defs><title>complete_50x50px</title><path class="cls-1" d="M43.67,33.65H47V47a3.16,3.16,0,0,1-1,2.4,3.32,3.32,0,0,1-2.35.94h-40A3.22,3.22,0,0,1,.35,47V7a3.28,3.28,0,0,1,.94-2.35,3.14,3.14,0,0,1,2.39-1H17V7H3.68V47h40ZM49.92,2.94a1.26,1.26,0,0,1,.21,1.66L30.86,32.93a1.26,1.26,0,0,1-1,.72,1.39,1.39,0,0,1-1.25-.41l-13-14.48a1.17,1.17,0,0,1,0-1.87l2.19-2.19a1.21,1.21,0,0,1,2,0L28.05,23a1.33,1.33,0,0,0,1.2.42,1.27,1.27,0,0,0,1-.83L45.45,1.06a1.26,1.26,0,0,1,1-.73,1.33,1.33,0,0,1,1.2.42Z"/></svg>
